X:1
T:Eternity
T:Eternity
T:Mary Elizabeth Bliss Willson
T:Frances Jane (Fanny) Crosby, 1887
T:Public Domain Courtesy of the Cyber Hymnal™
C:Mary Elizabeth Bliss Willson
Z:Public Domain
Z:Courtesy of the Cyber Hymnal™
%%score ( 1 2 ) ( 3 4 )
L:1/8
Q:1/4=95
M:4/4
K:G
V:1 treble 
V:2 treble 
V:3 bass 
V:4 bass 
V:1
 DD | [DG]>[DG] [DG][DG] [DG]2 [DB][Dc] | [Gd]>[Ge] [Gd][GB] [Gd]2 [GB][FA] | %3
w: 1.~Deep and|grand in tones sub- lime, Hear the|pass- ing bells of time, Ring the|
w: 2.~In the|ro- sy morn- ing fair, In the|sult- ry noon- day glare, In the|
w: 3.~When with|break- ing heart we bend, O’er a|tried and faith- ful friend, When the|
w: 4.~Pre- cious|word! if safe we stand On the|Christ- ian’s bor- der- land Trust- ing|
 [EG]>[EA] [EG][CE] [EG]2 [DB][DB] | [DA]>[DA] [^CA][CA] [DA]2 [DB][DA] | %5
w: dirge of mo- ments dead, Gold- en|hours whose joys are fled— Still those|
w: dew- y ev- ening bright, In the|si- lent hush of night— Still those|
w: part- ing hour draws nigh, And we|catch the last “good- bye”— Still those|
w: Him, Whose lov- ing smile Lights and|cheers us all the while— Bells of|
 [DG]>[DG] [DG][DG] [DG]2 [GB][GB] | [FA]>[FA] [GB]G [Fd]2 ||"^Refrain" [Gd]2 | %8
w: bells of time we hear, Toll- ing,|toll- ing: Hark! the word:||
w: bells of time we hear, Toll- ing,|toll- ing, loud and clear:||
w: bells of time we hear, Toll- ing,|toll- ing, loud and clear:||
w: time with joy we hear, Toll- ing,|toll- ing, sweet and clear:||
 [Gd]3 [GB] [Gd]2 [GB]2 | [GB]3 [DG] [DB]2 [DG]2 | [DG]4 [EG]4 | [DG]6 |] %12
w: ||||
w: ||||
w: ||||
w: ||||
V:2
 DD | x8 | x8 | x8 | x8 | x8 | x3 G x2 || x2 | x8 | x8 | x8 | x6 |] %12
V:3
 D,D, | [G,,B,]>[G,,B,] [G,,B,][G,,B,] [G,,B,]2 [G,,B,][G,,B,] | %2
w: ~ ~|~ ~ ~ ~ ~ ~ ~|
 [G,B,]>[G,C] [G,B,]G, [G,B,]2 [G,,G,][G,,G,] | [C,G,]>[C,G,] [C,G,][C,G,] [C,G,]2 G,G, | %4
w: ~ ~ ~ ~ ~ ~ ~|~ ~ ~ ~ ~ ~ ~|
 [D,F,]>[D,F,] [A,,E,][A,,E,] [D,F,]2 [D,G,][D,F,] | [G,,B,]>[G,,B,] [G,,B,][G,,B,] [G,,B,]2 G,G, | %6
w: ~ ~ ~ ~ ~ ~ ~|~ ~ ~ ~ ~ ~ ~|
 [D,D]>[D,D] [G,D][G,B,] [D,A,]2 || [G,B,]2 | [G,B,]3 [G,,G,] [G,,B,]2 [G,D]2 | %9
w: ~ ~ ~ ~ ~|E-|ter- ni- ty! E-|
 [G,D]3 [G,B,] [G,D]2 [G,,B,]2 | [G,,B,]4 [G,,C]4 | [G,,B,]6 |] %12
w: ter- ni- ty! E-|ter- ni-|ty!|
V:4
 D,D, | x8 | x3 G, x4 | x6 G,G, | x8 | x6 G,G, | x6 || x2 | x8 | x8 | x8 | x6 |] %12

